X: 1
T: Hommage \`a monsieur Lecourt
R: reel
Z: 2007 John Chambers <jc:trillian.mit.edu> from Pascal Gemme's blog
M: 2/4
L: 1/16
K: G
|: DFGA B2GB | A2F2 G2GB | d2g2 dBGA |  BGAB AGEG  |
|  DFGA BBGB | A2F2 G2GB | d2g2 dBGA |1 BGAF G2EE :|2 BGAF G3B |
|: d2BG dBGA | BGAG EDD2 | DFGA B2ge |  dBGA BAAB  |
|  d2BG dBGA | BGAG EDD2 | DFGA B2ge |1 dBAF G2GB :|2 dBAF G4 |]
